X:112
T:Paddy Fahy's
T:Paddy Fahey's
R:reel
C:Paddy Fahy
Z:id:hn-reel-112
M:C|
K:Gmix
B2dB c2dc|BGGF DEFD|BcdB c2dc|BGGF DGGA|
B2dB c2dc|BGGF DEFD|BcdB cedc|BGAF DGG2:|
|:dg~g2 dgBg|dgba gedB|cf~f2 cfAf|cfag fedc|
dg~g2 dgBg|dgba gde^f|gbag ^fdeg|^fdcA AGG2:|
P:variations
|:(3Bcd Bd c2dc|BGGF DEFD|GBdB c2dc|BGA^F ~G3A|
BDGB c2dc|BGGF DEFD|GBdB c2dc|BGA^F ~G3z:|
|:dg~g2 dcBc|dgag ^fdcB|c=f~f2 cfA_B|cfag fcBc|
dg~g2 dcBc|dgag ^fdef|gbag ^fd (3efg|^fdcA ~G3z:|

